src/pos-icons/rice.svg

<svg height="24" viewBox="0 0 24 24" width="24" xmlns="http://www.w3.org/2000/svg"><path d="m22 11h-2.3c-.3-1.1-.8-2.2-1.5-3l3.4-5.4-1.7-1.1-3.2 5.1c-.4-.3-.7-.5-1.2-.7l.9-3.6-1.9-.5-.8 3.4c-.6-.1-1.1-.2-1.7-.2-3.7 0-6.8 2.6-7.7 6h-2.3c0 4.1 2.5 7.6 6 9.2v1.8h8v-1.8c3.5-1.6 6-5.1 6-9.2m-10-4c2.6 0 4.8 1.7 5.6 4h-11.2c.8-2.3 3-4 5.6-4z"/></svg>

<?xml version="1.0" encoding="UTF-8"?><!DOCTYPE svg PUBLIC "-//W3C//DTD SVG 1.1//EN" "http://www.w3.org/Graphics/SVG/1.1/DTD/svg11.dtd"><svg xmlns="http://www.w3.org/2000/svg" xmlns:xlink="http://www.w3.org/1999/xlink" version="1.1" id="mdi-rice" width="24" height="24" viewBox="0 0 24 24"><path d="M22,11H19.7C19.4,9.9 18.9,8.8 18.2,8L21.6,2.6L19.9,1.5L16.7,6.6C16.3,6.3 16,6.1 15.5,5.9L16.4,2.3L14.5,1.8L13.7,5.2C13.1,5.1 12.6,5 12,5C8.3,5 5.2,7.6 4.3,11H2C2,15.1 4.5,18.6 8,20.2V22H16V20.2C19.5,18.6 22,15.1 22,11M12,7C14.6,7 16.8,8.7 17.6,11H6.4C7.2,8.7 9.4,7 12,7Z" /></svg>
